packages/icons/src/person-two.svg

<svg xmlns="http://www.w3.org/2000/svg" width="24" height="24" fill="none" viewBox="0 0 24 24">
  <path fill="#000" d="M16.67 13.13C18.04 14.06 19 15.32 19 17v3h4v-3c0-2.18-3.57-3.47-6.33-3.87ZM15 12c2.21 0 4-1.79 4-4s-1.79-4-4-4c-.47 0-.91.1-1.33.24a5.98 5.98 0 0 1 0 7.52c.42.14.86.24 1.33.24Zm-6 0c2.21 0 4-1.79 4-4s-1.79-4-4-4-4 1.79-4 4 1.79 4 4 4Zm0-6c1.1 0 2 .9 2 2s-.9 2-2 2-2-.9-2-2 .9-2 2-2Zm0 7c-2.67 0-8 1.34-8 4v3h16v-3c0-2.66-5.33-4-8-4Zm6 5H3v-.99C3.2 16.29 6.3 15 9 15s5.8 1.29 6 2v1Z"/>
</svg>

<svg width="24" height="24" viewBox="0 0 24 24" fill="none" xmlns="http://www.w3.org/2000/svg">
<path d="M16.67 13.13C18.04 14.06 19 15.32 19 17V20H23V17C23 14.82 19.43 13.53 16.67 13.13Z" fill="black"/>
<path d="M15 12C17.21 12 19 10.21 19 8C19 5.79 17.21 4 15 4C14.53 4 14.09 4.1 13.67 4.24C14.5 5.27 15 6.58 15 8C15 9.42 14.5 10.73 13.67 11.76C14.09 11.9 14.53 12 15 12Z" fill="black"/>
<path d="M9 12C11.21 12 13 10.21 13 8C13 5.79 11.21 4 9 4C6.79 4 5 5.79 5 8C5 10.21 6.79 12 9 12ZM9 6C10.1 6 11 6.9 11 8C11 9.1 10.1 10 9 10C7.9 10 7 9.1 7 8C7 6.9 7.9 6 9 6Z" fill="black"/>
<path d="M9 13C6.33 13 1 14.34 1 17V20H17V17C17 14.34 11.67 13 9 13ZM15 18H3V17.01C3.2 16.29 6.3 15 9 15C11.7 15 14.8 16.29 15 17V18Z" fill="black"/>
</svg>
